dist/svgs/unicons/line/chat.svg

<svg xmlns="http://www.w3.org/2000/svg" viewBox="0 0 24 24"><path d="M18 2H6a3 3 0 00-3 3v11a3 3 0 003 3h2.59l2.7 2.71A1 1 0 0012 22a1 1 0 00.65-.24L15.87 19H18a3 3 0 003-3V5a3 3 0 00-3-3zm1 14a1 1 0 01-1 1h-2.5a1 1 0 00-.65.24l-2.8 2.4-2.34-2.35A1 1 0 009 17H6a1 1 0 01-1-1V5a1 1 0 011-1h12a1 1 0 011 1z"/></svg>

<svg xmlns="http://www.w3.org/2000/svg" viewBox="0 0 24 24"><path d="M18,2H6A3,3,0,0,0,3,5V16a3,3,0,0,0,3,3H8.59l2.7,2.71A1,1,0,0,0,12,22a1,1,0,0,0,.65-.24L15.87,19H18a3,3,0,0,0,3-3V5A3,3,0,0,0,18,2Zm1,14a1,1,0,0,1-1,1H15.5a1,1,0,0,0-.65.24l-2.8,2.4L9.71,17.29A1,1,0,0,0,9,17H6a1,1,0,0,1-1-1V5A1,1,0,0,1,6,4H18a1,1,0,0,1,1,1Z"/></svg>
